packages/core/src/svgs/key.svg

<svg width="24" height="24" viewBox="0 0 24 24" fill="none" xmlns="http://www.w3.org/2000/svg">
<g clip-path="url(#clip0_31_12520)">
<path d="M0 0H24V24H0V0Z" fill="url(#paint0_linear_31_12520)"/>
<path d="M5.14282 8.12993L12 4.28564L18.8571 8.12993V15.8356L12 19.7142L5.14282 15.8356V8.12993Z" fill="white"/>
<path d="M11.6057 7.28564H13.7528C13.89 7.28564 14.1428 7.40564 14.1428 7.71422C14.1428 7.97564 13.9071 8.14279 13.7571 8.14279H12V8.99993H13.3543C13.4871 8.99993 13.7143 9.14993 13.7143 9.4285C13.7143 9.71136 13.4828 9.85707 13.3543 9.85707H12V13.6928H11.1428V7.81279C11.1514 7.40564 11.4428 7.28993 11.6057 7.28564Z" fill="url(#paint1_linear_31_12520)"/>
<path d="M11.5715 16.7142C12.5182 16.7142 13.2857 15.9467 13.2857 14.9999C13.2857 14.0532 12.5182 13.2856 11.5715 13.2856C10.6247 13.2856 9.85718 14.0532 9.85718 14.9999C9.85718 15.9467 10.6247 16.7142 11.5715 16.7142Z" fill="url(#paint2_linear_31_12520)"/>
<path d="M11.5715 15.8574C12.0449 15.8574 12.4286 15.4736 12.4286 15.0002C12.4286 14.5268 12.0449 14.1431 11.5715 14.1431C11.0981 14.1431 10.7144 14.5268 10.7144 15.0002C10.7144 15.4736 11.0981 15.8574 11.5715 15.8574Z" fill="white"/>
</g>
<defs>
<linearGradient id="paint0_linear_31_12520" x1="12" y1="0" x2="12" y2="24" gradientUnits="userSpaceOnUse">
<stop stop-color="#4AB0E1"/>
<stop offset="1" stop-color="#58B9CF"/>
</linearGradient>
<linearGradient id="paint1_linear_31_12520" x1="12.6128" y1="7.29422" x2="12.6128" y2="16.5642" gradientUnits="userSpaceOnUse">
<stop stop-color="#4AB0E1"/>
<stop offset="1" stop-color="#58B9CF"/>
</linearGradient>
<linearGradient id="paint2_linear_31_12520" x1="11.5715" y1="13.2856" x2="11.5715" y2="16.7142" gradientUnits="userSpaceOnUse">
<stop stop-color="#52B5D5"/>
<stop offset="1" stop-color="#58B9CF"/>
</linearGradient>
<clipPath id="clip0_31_12520">
<rect width="24" height="24" fill="white"/>
</clipPath>
</defs>
</svg>

<svg xmlns="http://www.w3.org/2000/svg" width="24" height="24" fill="none" viewBox="0 0 24 24"><g clip-path="url(#a)"><path fill="url(#b)" d="M0 0h24v24H0z"/><path fill="#fff" d="M5.143 8.13 12 4.286l6.857 3.844v7.706L12 19.714l-6.857-3.878z"/><path fill="url(#c)" d="M11.606 7.286h2.147c.137 0 .39.12.39.428 0 .262-.236.429-.386.429H12V9h1.354c.133 0 .36.15.36.428 0 .283-.231.43-.36.43H12v3.835h-.857v-5.88c.008-.407.3-.523.463-.527"/><path fill="url(#d)" d="M11.572 16.714a1.714 1.714 0 1 0 0-3.428 1.714 1.714 0 0 0 0 3.428"/><path fill="#fff" d="M11.572 15.857a.857.857 0 1 0 0-1.714.857.857 0 0 0 0 1.714"/></g><defs><linearGradient id="b" x1="12" x2="12" y1="0" y2="24" gradientUnits="userSpaceOnUse"><stop stop-color="#4AB0E1"/><stop offset="1" stop-color="#58B9CF"/></linearGradient><linearGradient id="c" x1="12.613" x2="12.613" y1="7.294" y2="16.564" gradientUnits="userSpaceOnUse"><stop stop-color="#4AB0E1"/><stop offset="1" stop-color="#58B9CF"/></linearGradient><linearGradient id="d" x1="11.572" x2="11.572" y1="13.286" y2="16.714" gradientUnits="userSpaceOnUse"><stop stop-color="#52B5D5"/><stop offset="1" stop-color="#58B9CF"/></linearGradient><clipPath id="a"><path fill="#fff" d="M0 0h24v24H0z"/></clipPath></defs></svg>
